svg/l/HM.svg

<svg width="32" height="24" viewBox="0 0 32 24" fill="none" xmlns="http://www.w3.org/2000/svg">
<g clip-path="url(#clip0_270_67554)">
<rect width="32" height="24" fill="white"/>
<path fill-rule="evenodd" clip-rule="evenodd" d="M0 0V24H32V0H0Z" fill="#2E42A5"/>
<g clip-path="url(#clip1_270_67554)">
<rect width="18" height="14" fill="#2E42A5"/>
<path d="M-2.00427 12.9998L1.95668 14.737L18.0899 1.88875L20.1792 -0.69278L15.9435 -1.2734L9.36317 4.26329L4.06667 7.99372L-2.00427 12.9998Z" fill="#F7FCFF"/>
<path d="M-1.46204 14.217L0.555885 15.2251L19.4289 -0.932632H16.5955L-1.46204 14.217Z" fill="#F50100"/>
<path d="M20.0043 12.9998L16.0433 14.737L-0.0898743 1.88875L-2.17919 -0.69278L2.05648 -1.2734L8.63683 4.26329L13.9333 7.99372L20.0043 12.9998Z" fill="#F7FCFF"/>
<path d="M19.8691 13.8733L17.8512 14.8815L9.81489 7.96351L7.43229 7.19059L-2.3802 -0.683947H0.453194L10.2602 7.00368L12.8651 7.9305L19.8691 13.8733Z" fill="#F50100"/>
<path fill-rule="evenodd" clip-rule="evenodd" d="M9.98451 0H7.98451V6H0V8H7.98451V14H9.98451V8H18V6H9.98451V0Z" fill="#F50100"/>
<path fill-rule="evenodd" clip-rule="evenodd" d="M6.48451 0H11.4845V4.5H18V9.5H11.4845L11.5 14H6.5L6.48451 9.5H0V4.5H6.48451V0ZM7.98451 6H0V8H7.98451V14H9.98451V8H18V6H9.98451V0H7.98451V6Z" fill="#F7FCFF"/>
</g>
<g clip-path="url(#clip2_270_67554)">
<path d="M9 20.5L7.69835 21.7029L7.82725 19.9352L6.07522 19.6676L7.53761 18.6662L6.65451 17.1295L8.34917 17.6485L9 16L9.65083 17.6485L11.3455 17.1295L10.4624 18.6662L11.9248 19.6676L10.1727 19.9352L10.3017 21.7029L9 20.5Z" fill="#F7FCFF"/>
<path d="M22 13L21.1322 13.8019L21.2182 12.6235L20.0501 12.445L21.0251 11.7775L20.4363 10.753L21.5661 11.099L22 10L22.4339 11.099L23.5637 10.753L22.9749 11.7775L23.9499 12.445L22.7818 12.6235L22.8678 13.8019L22 13Z" fill="#F7FCFF"/>
<path d="M24 5L23.1322 5.80194L23.2182 4.62349L22.0501 4.44504L23.0251 3.77748L22.4363 2.75302L23.5661 3.09903L24 2L24.4339 3.09903L25.5637 2.75302L24.9749 3.77748L25.9499 4.44504L24.7818 4.62349L24.8678 5.80194L24 5Z" fill="#F7FCFF"/>
<path d="M29 9L28.1322 9.80194L28.2182 8.62349L27.0501 8.44504L28.0251 7.77748L27.4363 6.75302L28.5661 7.09903L29 6L29.4339 7.09903L30.5637 6.75302L29.9749 7.77748L30.9499 8.44504L29.7818 8.62349L29.8678 9.80194L29 9Z" fill="#F7FCFF"/>
<path d="M25 22L24.1322 22.8019L24.2182 21.6235L23.0501 21.445L24.0251 20.7775L23.4363 19.753L24.5661 20.099L25 19L25.4339 20.099L26.5637 19.753L25.9749 20.7775L26.9499 21.445L25.7818 21.6235L25.8678 22.8019L25 22Z" fill="#F7FCFF"/>
<path d="M28.5 14.25L27.6183 14.7135L27.7867 13.7318L27.0734 13.0365L28.0592 12.8932L28.5 12L28.9408 12.8932L29.9266 13.0365L29.2133 13.7318L29.3817 14.7135L28.5 14.25Z" fill="#F7FCFF"/>
</g>
</g>
<defs>
<clipPath id="clip0_270_67554">
<rect width="32" height="24" fill="white"/>
</clipPath>
<clipPath id="clip1_270_67554">
<rect width="18" height="14" fill="white"/>
</clipPath>
<clipPath id="clip2_270_67554">
<rect width="25" height="21" fill="white" transform="translate(6 2)"/>
</clipPath>
</defs>
</svg>

<svg width="32" height="24" fill="none" xmlns="http://www.w3.org/2000/svg">
  <mask id="a" maskUnits="userSpaceOnUse" x="0" y="0" width="32" height="24">
    <path fill="#fff" d="M0 0h32v24H0z"/>
  </mask>
  <g mask="url(#a)">
    <path fill-rule="evenodd" clip-rule="evenodd" d="M0 0v24h32V0H0z" fill="#2E42A5"/>
    <mask id="b" maskUnits="userSpaceOnUse" x="0" y="0" width="32" height="24">
      <path fill-rule="evenodd" clip-rule="evenodd" d="M0 0v24h32V0H0z" fill="#fff"/>
    </mask>
    <g mask="url(#b)">
      <path fill="#2B409A" d="M0 0h18v14H0z"/>
      <mask id="c" maskUnits="userSpaceOnUse" x="0" y="0" width="18" height="14">
        <path fill="#fff" d="M0 0h18v14H0z"/>
      </mask>
      <g mask="url(#c)">
        <path d="M-2.004 13l3.96 1.737L18.09 1.889l2.09-2.582-4.236-.58-6.58 5.536-5.297 3.73L-2.004 13z" fill="#F7FCFF"/>
        <path d="M-1.462 14.217l2.018 1.008L19.429-.933h-2.833l-18.058 15.15z" fill="#F50100"/>
        <path d="M20.004 13l-3.96 1.737L-.09 1.889-2.18-.693l4.236-.58 6.58 5.536 5.297 3.73L20.004 13z" fill="#F7FCFF"/>
        <path d="M19.87 13.873l-2.019 1.009-8.036-6.918-2.383-.773L-2.38-.684H.453l9.807 7.688 2.605.927 7.004 5.942z" fill="#F50100"/>
        <mask id="d" maskUnits="userSpaceOnUse" x="-2" y="-2" width="22" height="18" fill="#000">
          <path fill="#fff" d="M-2-2h22v18H-2z"/>
          <path fill-rule="evenodd" clip-rule="evenodd" d="M9.985 0h-2v6H0v2h7.985v6h2V8H18V6H9.985V0z"/>
        </mask>
        <path fill-rule="evenodd" clip-rule="evenodd" d="M9.985 0h-2v6H0v2h7.985v6h2V8H18V6H9.985V0z" fill="#F50100"/>
        <path d="M7.985 0v-1.5h-1.5V0h1.5zm2 0h1.5v-1.5h-1.5V0zm-2 6v1.5h1.5V6h-1.5zM0 6V4.5h-1.5V6H0zm0 2h-1.5v1.5H0V8zm7.985 0h1.5V6.5h-1.5V8zm0 6h-1.5v1.5h1.5V14zm2 0v1.5h1.5V14h-1.5zm0-6V6.5h-1.5V8h1.5zM18 8v1.5h1.5V8H18zm0-2h1.5V4.5H18V6zM9.985 6h-1.5v1.5h1.5V6zm-2-4.5h2v-3h-2v3zm1.5 4.5V0h-3v6h3zM0 7.5h7.985v-3H0v3zm1.5.5V6h-3v2h3zm6.485-1.5H0v3h7.985v-3zm1.5 7.5V8h-3v6h3zm.5-1.5h-2v3h2v-3zM8.485 8v6h3V8h-3zM18 6.5H9.985v3H18v-3zM16.5 6v2h3V6h-3zM9.985 7.5H18v-3H9.985v3zM8.485 0v6h3V0h-3z" fill="#F7FCFF" mask="url(#d)"/>
      </g>
    </g>
    <path d="M9 20.5l-1.302 1.203.13-1.768-1.753-.267 1.463-1.002-.883-1.537 1.694.52L9 16l.65 1.648 1.695-.518-.883 1.536 1.463 1.002-1.752.267.129 1.768L9 20.5zM22 13l-.868.802.086-1.178-1.168-.179.975-.668-.589-1.024 1.13.346L22 10l.434 1.099 1.13-.346-.59 1.024.976.668-1.168.178.086 1.179L22 13zm2-8l-.868.802.086-1.179-1.168-.178.975-.668-.589-1.024 1.13.346L24 2l.434 1.099 1.13-.346-.59 1.024.976.668-1.168.178.086 1.179L24 5zm5 4l-.868.802.086-1.179-1.168-.178.975-.668-.589-1.024 1.13.346L29 6l.434 1.099 1.13-.346-.59 1.024.976.668-1.168.178.086 1.179L29 9zm-4 13l-.868.802.086-1.178-1.168-.179.975-.668-.589-1.024 1.13.346L25 19l.434 1.099 1.13-.346-.59 1.024.976.668-1.168.178.086 1.179L25 22zm3.5-7.75l-.882.463.169-.981-.714-.695.986-.144L28.5 12l.44.893.987.143-.714.696.169.982-.882-.464z" fill="#F7FCFF"/>
  </g>
</svg>
